X: 16213
T: Greene's Delight
R: jig
M: 6/8
K: Dmajor
A|d2 d e2 e|f3 f2 f|gec gec|dfd ABc|
d2 d e2 e|f3 f2 f|gec gec|d2 d d2:|
B|AFD AFD|ABc dcB|AFD AFD|BGE E2 B|
AFD AFD|ABc dcB|AFD GEC|DFA d2:|

